X: 35418
T: Round The House And Mind The Dresser
R: reel
M: 4/4
K: Gmajor
~G3F GBdB|GBdG AEED|(3GGG DG ABcd|eAAB c2BA|
~G3F GBdB|GBdG AEED|(3GGG DG ABcd|eAAB c2Bc|
dcBc (3ddd Bc|dcBd cAAB|dcBc d2Bc|dAAB ~c3A|
dcBc dcBc|dcBd cA(3AAA|defg afge|fdcA FGAF|
Gggf (3ggg dg|(3ggg dg fAcA|Gggf gabg|aAAB (3ccc BA|
Gggf (3ggg dg|(3ggg dg fAcA|Gggf gabg|aAAB (3ccc BA|

